public/assets/standards/sci-ai/what-sci-illustration.svg

<svg xmlns="http://www.w3.org/2000/svg" width="400" height="400" fill="none" viewBox="0 0 400 400"><path fill="#003834" d="M303.05 143.78H116.27v162.9h186.78z"/><path stroke="#a6c453" stroke-linecap="round" stroke-linejoin="round" stroke-width="1.85" d="M159.76 180.25c22.09-24.74 53.85-26.46 82.44-14.13 4.47 1.93 8.75 5.55 12.35 8.76 8.49 7.58 14.99 17.28 18.72 28.05 1.76 5.07 2.9 9.85 2.44 15.17-.42 4.82.59 8.72.9 13.57.27 4.25-1.43 9.36-2.68 13.37-2.84 9.1-7.65 17.53-14 24.64-5.57 6.24-12.2 11.18-19.56 15.11-5.73 3.06-12.65 3.49-18.72 5.45-6.37 2.06-12.66 2.15-19.38 1.34-13.65-1.64-26.85-7.35-37.12-16.53-12.18-10.88-20.07-26.04-21.97-42.27-.94-8.02-.42-16.19 1.52-24.02 1.36-5.47 4.23-10.11 7.1-14.88 2.83-4.7 4.3-9.5 7.98-13.62z"/><path stroke="#a6c453" stroke-linecap="round" stroke-linejoin="round" stroke-width="1.85" d="M256.53 273.04c-3.12.74-7.37-.41-10.04-2.03-1.39-.84-2.8-1.7-3.96-2.83-2.68-2.63-3.79-6.64-3.28-10.36 1.1-7.98 9.17-13.24 14.95-17.96 11.67-9.52 19.7-23.35 18.54-38.77"/><path stroke="#a6c453" stroke-linecap="round" stroke-linejoin="round" stroke-width="1.85" d="M238.72 285.07c-6.93-1.48-13.35-6.02-16.67-12.33-3.27-6.2-1.9-14.08 1.01-20.2 5.32-11.2 15.25-17.99 23.54-26.82 6.5-6.93 10.24-14.31 12.63-23.43 1.69-6.45 3.36-14.92 1.48-21.46m-56.22-22.04c18.72-2.89 39.01 11.43 32.99 33.08-2.86 10.29-10.66 18.15-19.64 23.54-8.16 4.9-20.29 3.82-29.67 6.65-5.22 1.58-9.44 6.47-13.9 9.6-1.87 1.31-3.75 2.64-5.85 3.53-5.1 2.16-11.31 1.46-15.8-1.78-8.17-5.9-9.5-15.96-7.55-26.04"/><path stroke="#a6c453" stroke-linecap="round" stroke-linejoin="round" stroke-width="1.85" d="M222.56 190.09c1.08-4.71-.21-10.14-3.96-13.19-1.87-1.52-4.19-2.36-6.53-2.93-13.93-3.35-29.03 3.14-38.36 14.01-3.28 3.83-6.01 8.26-7.07 13.19s-.3 10.39 2.78 14.38c4.77 6.16 9.35 2.62 13.92-1.24 4.14-3.49 6.93-4.57 12.18-5.03 11.2-.98 24.25-7.05 27.04-19.2z"/><path stroke="#a6c453" stroke-linecap="round" stroke-linejoin="round" stroke-width="1.85" d="M199.67 197.17c1.69-.81 3.4-1.74 4.54-3.23s1.55-3.69.51-5.24c-1.22-1.82-3.79-2.06-5.98-1.93-4.5.27-8.96 1.35-13.09 3.16-2.19.96-4.47 2.33-5.25 4.59-4.09 11.91 16.28 4.07 19.27 2.64zm-52.43 52.12c9.15 10.92 26.48 5.52 35.16-2.78 4.61-4.41 7.31-9.92 13.58-12.51 5.04-2.09 10.71-1.75 16.08-2.7 24.27-4.27 44.12-37.67 36.16-61.38m-27.38 120.7c-5.04-.65-9.12-4.11-11.19-8.75-1.83-4.09-2.71-8.55-2.73-13.02-.02-4.15-.31-8.02-2.61-11.64-3.75-5.9-12.85-2.07-16.61 1.94-2.43 2.6-4.86 5.22-7.6 7.5-5.62 4.67-12.22 6.92-19.37 4.47"/><path stroke="#a6c453" stroke-linecap="round" stroke-linejoin="round" stroke-width="1.85" d="M205.62 291.72c-3.5.32-6.96-3.36-8.37-6.21-1.93-3.89.93-6.84.62-10.79-.14-1.83-1.23-3.56-2.82-4.48s-3.63-1-5.28-.21c-1.64.78-2.8 2.29-3.86 3.77-1.32 1.84-2.62 3.75-4.37 5.2-2.15 1.78-5.71 2.95-8.43 1.78"/><path fill="#a9c753" d="M164.64 242.28a5.84 5.84 0 1 0 0-11.68 5.84 5.84 0 0 0 0 11.68m91.35 3.91a5.84 5.84 0 1 0 0-11.68 5.84 5.84 0 0 0 0 11.68m-82.88-53.44a3.97 3.97 0 1 0 .001-7.939 3.97 3.97 0 0 0-.001 7.939m65.45-6.07a5.84 5.84 0 1 0 0-11.68 5.84 5.84 0 0 0 0 11.68m-41.27 80.15a3.97 3.97 0 1 0 .001-7.939 3.97 3.97 0 0 0-.001 7.939"/><path fill="#006d68" stroke="#acca53" stroke-miterlimit="10" stroke-width="1.66" d="M90.97 206.41H2.1v174.13h119.48V242.18z"/><path fill="#acca53" d="M90.97 242.18h29.5l-28.95-33.37z"/><path fill="#003834" d="M106.27 284.19H20.78v11.82h85.49zm0-33.11H20.78v11.82h85.49zm0 66.22H20.78v11.82h85.49z"/><path fill="#acca53" d="M156.57 316.71H55.97v47.28h100.6z"/><path fill="#003834" d="M78.346 347.126v2.184h-2.22v-2.184zm1.157-3.72h2.136v5.904h-2.135zm2.185-2.952v1.932h-2.233v-1.932zm8.727 2.808q1.031 0 1.523.624.505.624.504 1.92v3.504h-2.135v-3.444q0-.516-.157-.744-.156-.228-.516-.228-.444 0-.683.312-.228.312-.228.888v3.216h-2.136v-3.444q0-.516-.157-.744-.156-.228-.516-.228-.444 0-.671.312t-.228.888v3.216h-2.136v-5.904h2.075v.744q.59-.888 1.8-.888 1.273 0 1.716 1.044a2.2 2.2 0 0 1 .817-.768q.516-.276 1.127-.276m7.145 0q.756 0 1.344.396.6.384.924 1.092.336.708.336 1.62t-.336 1.608a2.46 2.46 0 0 1-.912 1.056 2.5 2.5 0 0 1-1.356.372q-.564 0-1.044-.228a1.85 1.85 0 0 1-.732-.612v2.904h-2.136v-8.064h2.1v.756q.252-.42.732-.66a2.4 2.4 0 0 1 1.08-.24m-.648 4.548q.552 0 .84-.372.3-.372.3-1.068 0-.732-.3-1.116-.3-.396-.852-.396t-.852.384-.3 1.104q0 .708.3 1.092.3.372.864.372m71.119-173.39c16.132 0 29.21-13.078 29.21-29.21S184.162 116 168.03 116s-29.21 13.078-29.21 29.21 13.078 29.21 29.21 29.21"/><path fill="#fff" d="M203.78 145.21h-13.56s-.02 1.07-.06 1.59c-.82 11.51-10.41 20.59-22.13 20.59s-21.39-9.16-22.14-20.73c-.03-.48-.05-1.46-.05-1.46h-13.56s0 .97.03 1.45c.76 19.07 16.46 34.3 35.72 34.3 19.16 0 34.79-15.07 35.7-34 .03-.58.04-1.75.04-1.75z"/><path fill="#006d68" d="M132.29 145.21h13.56c0-12.25 9.93-22.19 22.19-22.19s22.19 9.93 22.19 22.19h13.56c0-19.74-16-35.75-35.75-35.75s-35.75 16-35.75 35.75"/><path fill="#acca53" d="M168.03 162.02c9.284 0 16.81-7.526 16.81-16.81s-7.526-16.81-16.81-16.81-16.81 7.526-16.81 16.81 7.526 16.81 16.81 16.81"/><path fill="#fff" d="m169.75 145.2-1.72 16.82-1.71-16.82z"/><path fill="#3c3c3c" d="m166.32 145.2 1.71-16.81 1.72 16.81z"/><path fill="#003834" d="m89.554 121.825-10.536 10.536 10.536 10.536 10.536-10.536z"/><path fill="#aecc53" d="m89.55 124.95 7.4 7.4-7.4 7.4-7.4-7.4zm0-6.26-13.67 13.67 13.67 13.67 13.67-13.67z"/><path fill="#003834" d="M41.42 172.89c3.96 0 7.19 3.22 7.19 7.18s-3.22 7.18-7.19 7.18a7.18 7.18 0 0 1-7.18-7.18c0-3.96 3.22-7.18 7.18-7.18m0-5.4c-6.95 0-12.58 5.63-12.58 12.58s5.63 12.58 12.58 12.58S54 187.02 54 180.07s-5.63-12.58-12.58-12.58"/><path stroke="#006d68" stroke-miterlimit="10" stroke-width="4.42" d="M373.08 195.72v-18.78l-16.26-9.38-16.25 9.38v18.78l16.25 9.39z"/><path fill="#006d68" stroke="#003834" stroke-miterlimit="10" stroke-width="1.66" d="M254.31 328.81h137.01a6.57 6.57 0 0 0 6.57-6.57v-38.47a6.57 6.57 0 0 0-6.57-6.57H254.31a6.57 6.57 0 0 0-6.57 6.57v38.47a6.57 6.57 0 0 0 6.57 6.57Zm0 51.73h137.01a6.57 6.57 0 0 0 6.57-6.57V335.5a6.57 6.57 0 0 0-6.57-6.57H254.31a6.57 6.57 0 0 0-6.57 6.57v38.47a6.57 6.57 0 0 0 6.57 6.57Zm0-103.37h137.01a6.57 6.57 0 0 0 6.57-6.57v-38.47a6.57 6.57 0 0 0-6.57-6.57H254.31a6.57 6.57 0 0 0-6.57 6.57v38.47a6.57 6.57 0 0 0 6.57 6.57Z"/><path fill="#a9c753" stroke="#006d68" stroke-miterlimit="10" d="m353.53 360.04 8.26 8.26 5.31-5.31 5.3 5.31 8.26-8.26-5.31-5.3 5.31-5.31-8.26-8.26-5.3 5.31-5.31-5.31-8.26 8.26 5.31 5.31z"/><path fill="#003834" d="M296.86 359.62h19.66a5.96 5.96 0 1 0 0-11.92h-19.66a5.96 5.96 0 1 0 0 11.92"/><path fill="#a9c753" stroke="#006d68" stroke-miterlimit="10" d="m353.53 308.32 8.26 8.25 5.31-5.3 5.3 5.3 8.26-8.25-5.31-5.31 5.31-5.31-8.26-8.25-5.3 5.31-5.31-5.31-8.26 8.25 5.31 5.31z"/><path fill="#003834" d="M296.86 308.97h19.66a5.96 5.96 0 1 0 0-11.92h-19.66a5.96 5.96 0 1 0 0 11.92"/><path fill="#a9c753" stroke="#006d68" stroke-miterlimit="10" d="m353.53 256.67 8.26 8.25 5.31-5.31 5.3 5.31 8.26-8.25-5.31-5.31 5.31-5.31-8.26-8.25-5.3 5.3-5.31-5.3-8.26 8.25 5.31 5.31z"/><path fill="#003834" d="M296.86 257.32h19.66a5.96 5.96 0 1 0 0-11.92h-19.66a5.96 5.96 0 1 0 0 11.92m-22 102.3h3.66a5.96 5.96 0 1 0 0-11.92h-3.66a5.96 5.96 0 1 0 0 11.92m0-50.65h3.66a5.96 5.96 0 1 0 0-11.92h-3.66a5.96 5.96 0 1 0 0 11.92m0-51.65h3.66a5.96 5.96 0 1 0 0-11.92h-3.66a5.96 5.96 0 1 0 0 11.92"/><path fill="#006d68" d="M352.03 74.96h21.05c0-30.65-24.85-55.5-55.5-55.5s-55.5 24.85-55.5 55.5h21.05c0-19.02 15.42-34.45 34.45-34.45s34.45 15.42 34.45 34.45"/><path fill="#aecc53" d="M352.03 74.96v1.29-.02c0 .24-.02.47-.03.7v.03c0 .07 0 .14-.01.2 0 .1-.01.2-.02.29-.01.19-.04.38-.06.57-1.54 17.6-16.31 31.4-34.3 31.4S284.4 95.2 283.24 77.23c0-.11-.01-.24-.02-.38-.03-.79-.05-1.88-.05-1.88h-21.05s.01 1.5.04 2.24c1.18 29.61 25.55 53.25 55.46 53.25s54.02-23.39 55.43-52.79c.04-.9.06-2.71.06-2.71z"/><path fill="#006d68" d="M322.48 70.06h-9.8v9.8h9.8z"/><path fill="#fff" d="M283.26 70.06h-9.8v9.8h9.8zm78.44 0h-9.8v9.8h9.8zm-49.02 39.13v9.8h9.8v-9.8zm0-78.26v9.8h9.8v-9.8z"/><path fill="#3c3c3c" d="M293.07 60.25v9.81h-9.8v9.8h9.8v9.81h9.81V60.25zm49.03 9.81v-9.81h-9.81v29.42h9.81v-9.81h9.8v-9.8zm-19.61-19.61v-9.81h-9.81v9.81h-9.8v9.8h29.41v-9.8zm4.9 39.22h-24.51v9.8h9.8v9.81h9.81v-9.81h9.8v-9.8z"/></svg>

<svg width="400" height="400" viewBox="0 0 400 400" fill="none" xmlns="http://www.w3.org/2000/svg">
<path d="M303.05 143.78H116.27V306.68H303.05V143.78Z" fill="#003834"/>
<path d="M159.76 180.25C181.85 155.51 213.61 153.79 242.2 166.12C246.67 168.05 250.95 171.67 254.55 174.88C263.04 182.46 269.54 192.16 273.27 202.93C275.03 208 276.17 212.78 275.71 218.1C275.29 222.92 276.3 226.82 276.61 231.67C276.88 235.92 275.18 241.03 273.93 245.04C271.09 254.14 266.28 262.57 259.93 269.68C254.36 275.92 247.73 280.86 240.37 284.79C234.64 287.85 227.72 288.28 221.65 290.24C215.28 292.3 208.99 292.39 202.27 291.58C188.62 289.94 175.42 284.23 165.15 275.05C152.97 264.17 145.08 249.01 143.18 232.78C142.24 224.76 142.76 216.59 144.7 208.76C146.06 203.29 148.93 198.65 151.8 193.88C154.63 189.18 156.1 184.38 159.78 180.26L159.76 180.25Z" stroke="#A6C453" stroke-width="1.85" stroke-linecap="round" stroke-linejoin="round"/>
<path d="M256.53 273.04C253.41 273.78 249.16 272.63 246.49 271.01C245.1 270.17 243.69 269.31 242.53 268.18C239.85 265.55 238.74 261.54 239.25 257.82C240.35 249.84 248.42 244.58 254.2 239.86C265.87 230.34 273.9 216.51 272.74 201.09" stroke="#A6C453" stroke-width="1.85" stroke-linecap="round" stroke-linejoin="round"/>
<path d="M238.72 285.07C231.79 283.59 225.37 279.05 222.05 272.74C218.78 266.54 220.15 258.66 223.06 252.54C228.38 241.34 238.31 234.55 246.6 225.72C253.1 218.79 256.84 211.41 259.23 202.29C260.92 195.84 262.59 187.37 260.71 180.83" stroke="#A6C453" stroke-width="1.85" stroke-linecap="round" stroke-linejoin="round"/>
<path d="M204.49 158.79C223.21 155.9 243.5 170.22 237.48 191.87C234.62 202.16 226.82 210.02 217.84 215.41C209.68 220.31 197.55 219.23 188.17 222.06C182.95 223.64 178.73 228.53 174.27 231.66C172.4 232.97 170.52 234.3 168.42 235.19C163.32 237.35 157.11 236.65 152.62 233.41C144.45 227.51 143.12 217.45 145.07 207.37" stroke="#A6C453" stroke-width="1.85" stroke-linecap="round" stroke-linejoin="round"/>
<path d="M222.56 190.09C223.64 185.38 222.35 179.95 218.6 176.9C216.73 175.38 214.41 174.54 212.07 173.97C198.14 170.62 183.04 177.11 173.71 187.98C170.43 191.81 167.7 196.24 166.64 201.17C165.58 206.1 166.34 211.56 169.42 215.55C174.19 221.71 178.77 218.17 183.34 214.31C187.48 210.82 190.27 209.74 195.52 209.28C206.72 208.3 219.77 202.23 222.56 190.08V190.09Z" stroke="#A6C453" stroke-width="1.85" stroke-linecap="round" stroke-linejoin="round"/>
<path d="M199.67 197.17C201.36 196.36 203.07 195.43 204.21 193.94C205.35 192.45 205.76 190.25 204.72 188.7C203.5 186.88 200.93 186.64 198.74 186.77C194.24 187.04 189.78 188.12 185.65 189.93C183.46 190.89 181.18 192.26 180.4 194.52C176.31 206.43 196.68 198.59 199.67 197.16V197.17Z" stroke="#A6C453" stroke-width="1.85" stroke-linecap="round" stroke-linejoin="round"/>
<path d="M147.24 249.29C156.39 260.21 173.72 254.81 182.4 246.51C187.01 242.1 189.71 236.59 195.98 234C201.02 231.91 206.69 232.25 212.06 231.3C236.33 227.03 256.18 193.63 248.22 169.92" stroke="#A6C453" stroke-width="1.85" stroke-linecap="round" stroke-linejoin="round"/>
<path d="M220.84 290.62C215.8 289.97 211.72 286.51 209.65 281.87C207.82 277.78 206.94 273.32 206.92 268.85C206.9 264.7 206.61 260.83 204.31 257.21C200.56 251.31 191.46 255.14 187.7 259.15C185.27 261.75 182.84 264.37 180.1 266.65C174.48 271.32 167.88 273.57 160.73 271.12" stroke="#A6C453" stroke-width="1.85" stroke-linecap="round" stroke-linejoin="round"/>
<path d="M205.62 291.72C202.12 292.04 198.66 288.36 197.25 285.51C195.32 281.62 198.18 278.67 197.87 274.72C197.73 272.89 196.64 271.16 195.05 270.24C193.46 269.32 191.42 269.24 189.77 270.03C188.13 270.81 186.97 272.32 185.91 273.8C184.59 275.64 183.29 277.55 181.54 279C179.39 280.78 175.83 281.95 173.11 280.78" stroke="#A6C453" stroke-width="1.85" stroke-linecap="round" stroke-linejoin="round"/>
<path d="M164.64 242.28C167.865 242.28 170.48 239.665 170.48 236.44C170.48 233.215 167.865 230.6 164.64 230.6C161.415 230.6 158.8 233.215 158.8 236.44C158.8 239.665 161.415 242.28 164.64 242.28Z" fill="#A9C753"/>
<path d="M255.99 246.19C259.215 246.19 261.83 243.575 261.83 240.35C261.83 237.125 259.215 234.51 255.99 234.51C252.765 234.51 250.15 237.125 250.15 240.35C250.15 243.575 252.765 246.19 255.99 246.19Z" fill="#A9C753"/>
<path d="M173.11 192.75C175.303 192.75 177.08 190.973 177.08 188.78C177.08 186.587 175.303 184.81 173.11 184.81C170.917 184.81 169.14 186.587 169.14 188.78C169.14 190.973 170.917 192.75 173.11 192.75Z" fill="#A9C753"/>
<path d="M238.56 186.68C241.785 186.68 244.4 184.065 244.4 180.84C244.4 177.615 241.785 175 238.56 175C235.335 175 232.72 177.615 232.72 180.84C232.72 184.065 235.335 186.68 238.56 186.68Z" fill="#A9C753"/>
<path d="M197.29 266.83C199.483 266.83 201.26 265.053 201.26 262.86C201.26 260.667 199.483 258.89 197.29 258.89C195.097 258.89 193.32 260.667 193.32 262.86C193.32 265.053 195.097 266.83 197.29 266.83Z" fill="#A9C753"/>
<path d="M90.97 206.41H2.09998V380.54H121.58V242.18L90.97 206.41Z" fill="#006D68" stroke="#ACCA53" stroke-width="1.66" stroke-miterlimit="10"/>
<path d="M90.97 242.18H120.47L91.52 208.81L90.97 242.18Z" fill="#ACCA53"/>
<path d="M106.27 284.19H20.78V296.01H106.27V284.19Z" fill="#003834"/>
<path d="M106.27 251.08H20.78V262.9H106.27V251.08Z" fill="#003834"/>
<path d="M106.27 317.3H20.78V329.12H106.27V317.3Z" fill="#003834"/>
<path d="M156.57 316.71H55.97V363.99H156.57V316.71Z" fill="#ACCA53"/>
<path d="M78.346 347.126V349.31H76.126V347.126H78.346ZM79.5035 343.406H81.6395V349.31H79.5035V343.406ZM81.6875 340.454V342.386H79.4555V340.454H81.6875ZM90.4145 343.262C91.1025 343.262 91.6105 343.47 91.9385 343.886C92.2745 344.302 92.4425 344.942 92.4425 345.806V349.31H90.3065V345.866C90.3065 345.522 90.2545 345.274 90.1505 345.122C90.0465 344.97 89.8745 344.894 89.6345 344.894C89.3385 344.894 89.1105 344.998 88.9505 345.206C88.7985 345.414 88.7225 345.71 88.7225 346.094V349.31H86.5865V345.866C86.5865 345.522 86.5345 345.274 86.4305 345.122C86.3265 344.97 86.1545 344.894 85.9145 344.894C85.6185 344.894 85.3945 344.998 85.2425 345.206C85.0905 345.414 85.0145 345.71 85.0145 346.094V349.31H82.8785V343.406H84.9545V344.15C85.3465 343.558 85.9465 343.262 86.7545 343.262C87.6025 343.262 88.1745 343.61 88.4705 344.306C88.6785 343.978 88.9505 343.722 89.2865 343.538C89.6305 343.354 90.0065 343.262 90.4145 343.262ZM97.56 343.262C98.064 343.262 98.512 343.394 98.904 343.658C99.304 343.914 99.612 344.278 99.828 344.75C100.052 345.222 100.164 345.762 100.164 346.37C100.164 346.978 100.052 347.514 99.828 347.978C99.612 348.434 99.308 348.786 98.916 349.034C98.524 349.282 98.072 349.406 97.56 349.406C97.184 349.406 96.836 349.33 96.516 349.178C96.204 349.026 95.96 348.822 95.784 348.566V351.47H93.648V343.406H95.748V344.162C95.916 343.882 96.16 343.662 96.48 343.502C96.808 343.342 97.168 343.262 97.56 343.262ZM96.912 347.81C97.28 347.81 97.56 347.686 97.752 347.438C97.952 347.19 98.052 346.834 98.052 346.37C98.052 345.882 97.952 345.51 97.752 345.254C97.552 344.99 97.268 344.858 96.9 344.858C96.532 344.858 96.248 344.986 96.048 345.242C95.848 345.498 95.748 345.866 95.748 346.346C95.748 346.818 95.848 347.182 96.048 347.438C96.248 347.686 96.536 347.81 96.912 347.81Z" fill="#003834"/>
<path d="M168.03 174.42C184.162 174.42 197.24 161.342 197.24 145.21C197.24 129.078 184.162 116 168.03 116C151.898 116 138.82 129.078 138.82 145.21C138.82 161.342 151.898 174.42 168.03 174.42Z" fill="#003834"/>
<path d="M203.78 145.21H190.22C190.22 145.21 190.2 146.28 190.16 146.8C189.34 158.31 179.75 167.39 168.03 167.39C156.31 167.39 146.64 158.23 145.89 146.66C145.86 146.18 145.84 145.2 145.84 145.2H132.28C132.28 145.2 132.28 146.17 132.31 146.65C133.07 165.72 148.77 180.95 168.03 180.95C187.19 180.95 202.82 165.88 203.73 146.95C203.76 146.37 203.77 145.2 203.77 145.2L203.78 145.21Z" fill="white"/>
<path d="M132.29 145.21H145.85C145.85 132.96 155.78 123.02 168.04 123.02C180.3 123.02 190.23 132.95 190.23 145.21H203.79C203.79 125.47 187.79 109.46 168.04 109.46C148.29 109.46 132.29 125.46 132.29 145.21Z" fill="#006D68"/>
<path d="M168.03 162.02C177.314 162.02 184.84 154.494 184.84 145.21C184.84 135.926 177.314 128.4 168.03 128.4C158.746 128.4 151.22 135.926 151.22 145.21C151.22 154.494 158.746 162.02 168.03 162.02Z" fill="#ACCA53"/>
<path d="M169.75 145.2L168.03 162.02L166.32 145.2H169.75Z" fill="white"/>
<path d="M166.32 145.2L168.03 128.39L169.75 145.2H166.32Z" fill="#3C3C3C"/>
<path d="M89.5541 121.825L79.0182 132.361L89.5541 142.897L100.09 132.361L89.5541 121.825Z" fill="#003834"/>
<path d="M89.55 124.95L96.95 132.35L89.55 139.75L82.15 132.35L89.55 124.95ZM89.55 118.69L75.88 132.36L89.55 146.03L103.22 132.36L89.55 118.69Z" fill="#AECC53"/>
<path d="M41.42 172.89C45.38 172.89 48.61 176.11 48.61 180.07C48.61 184.03 45.39 187.25 41.42 187.25C37.45 187.25 34.24 184.03 34.24 180.07C34.24 176.11 37.46 172.89 41.42 172.89ZM41.42 167.49C34.47 167.49 28.84 173.12 28.84 180.07C28.84 187.02 34.47 192.65 41.42 192.65C48.37 192.65 54 187.02 54 180.07C54 173.12 48.37 167.49 41.42 167.49Z" fill="#003834"/>
<path d="M373.08 195.72V176.94L356.82 167.56L340.57 176.94V195.72L356.82 205.11L373.08 195.72Z" stroke="#006D68" stroke-width="4.42" stroke-miterlimit="10"/>
<path d="M254.31 328.81H391.32C394.949 328.81 397.89 325.869 397.89 322.24V283.77C397.89 280.141 394.949 277.2 391.32 277.2H254.31C250.682 277.2 247.74 280.141 247.74 283.77V322.24C247.74 325.869 250.682 328.81 254.31 328.81Z" fill="#006D68" stroke="#003834" stroke-width="1.66" stroke-miterlimit="10"/>
<path d="M254.31 380.54H391.32C394.949 380.54 397.89 377.599 397.89 373.97V335.5C397.89 331.872 394.949 328.93 391.32 328.93H254.31C250.682 328.93 247.74 331.872 247.74 335.5V373.97C247.74 377.599 250.682 380.54 254.31 380.54Z" fill="#006D68" stroke="#003834" stroke-width="1.66" stroke-miterlimit="10"/>
<path d="M254.31 277.17H391.32C394.949 277.17 397.89 274.229 397.89 270.6V232.13C397.89 228.501 394.949 225.56 391.32 225.56H254.31C250.682 225.56 247.74 228.501 247.74 232.13V270.6C247.74 274.229 250.682 277.17 254.31 277.17Z" fill="#006D68" stroke="#003834" stroke-width="1.66" stroke-miterlimit="10"/>
<path d="M353.53 360.04L361.79 368.3L367.1 362.99L372.4 368.3L380.66 360.04L375.35 354.74L380.66 349.43L372.4 341.17L367.1 346.48L361.79 341.17L353.53 349.43L358.84 354.74L353.53 360.04Z" fill="#A9C753" stroke="#006D68" stroke-miterlimit="10"/>
<path d="M296.86 359.62H316.52C319.812 359.62 322.48 356.952 322.48 353.66C322.48 350.368 319.812 347.7 316.52 347.7H296.86C293.568 347.7 290.9 350.368 290.9 353.66C290.9 356.952 293.568 359.62 296.86 359.62Z" fill="#003834"/>
<path d="M353.53 308.32L361.79 316.57L367.1 311.27L372.4 316.57L380.66 308.32L375.35 303.01L380.66 297.7L372.4 289.45L367.1 294.76L361.79 289.45L353.53 297.7L358.84 303.01L353.53 308.32Z" fill="#A9C753" stroke="#006D68" stroke-miterlimit="10"/>
<path d="M296.86 308.97H316.52C319.812 308.97 322.48 306.302 322.48 303.01C322.48 299.718 319.812 297.05 316.52 297.05H296.86C293.568 297.05 290.9 299.718 290.9 303.01C290.9 306.302 293.568 308.97 296.86 308.97Z" fill="#003834"/>
<path d="M353.53 256.67L361.79 264.92L367.1 259.61L372.4 264.92L380.66 256.67L375.35 251.36L380.66 246.05L372.4 237.8L367.1 243.1L361.79 237.8L353.53 246.05L358.84 251.36L353.53 256.67Z" fill="#A9C753" stroke="#006D68" stroke-miterlimit="10"/>
<path d="M296.86 257.32H316.52C319.812 257.32 322.48 254.652 322.48 251.36C322.48 248.068 319.812 245.4 316.52 245.4H296.86C293.568 245.4 290.9 248.068 290.9 251.36C290.9 254.652 293.568 257.32 296.86 257.32Z" fill="#003834"/>
<path d="M274.86 359.62H278.52C281.812 359.62 284.48 356.952 284.48 353.66C284.48 350.368 281.812 347.7 278.52 347.7H274.86C271.568 347.7 268.9 350.368 268.9 353.66C268.9 356.952 271.568 359.62 274.86 359.62Z" fill="#003834"/>
<path d="M274.86 308.97H278.52C281.812 308.97 284.48 306.302 284.48 303.01C284.48 299.718 281.812 297.05 278.52 297.05H274.86C271.568 297.05 268.9 299.718 268.9 303.01C268.9 306.302 271.568 308.97 274.86 308.97Z" fill="#003834"/>
<path d="M274.86 257.32H278.52C281.812 257.32 284.48 254.652 284.48 251.36C284.48 248.068 281.812 245.4 278.52 245.4H274.86C271.568 245.4 268.9 248.068 268.9 251.36C268.9 254.652 271.568 257.32 274.86 257.32Z" fill="#003834"/>
<path d="M352.03 74.96H373.08C373.08 44.31 348.23 19.46 317.58 19.46C286.93 19.46 262.08 44.31 262.08 74.96H283.13C283.13 55.94 298.55 40.51 317.58 40.51C336.61 40.51 352.03 55.93 352.03 74.96Z" fill="#006D68"/>
<path d="M352.03 74.96C352.03 74.96 352.03 75.12 352.03 75.34C352.03 75.34 352.03 75.36 352.03 75.37C352.03 75.46 352.03 75.56 352.03 75.67C352.03 75.71 352.03 75.76 352.03 75.8C352.03 75.85 352.03 75.9 352.03 75.96C352.03 76.05 352.03 76.15 352.03 76.25C352.03 76.25 352.03 76.24 352.03 76.23C352.03 76.47 352.01 76.7 352 76.93C352 76.93 352 76.95 352 76.96C352 77.03 352 77.1 351.99 77.16C351.99 77.26 351.98 77.36 351.97 77.45C351.96 77.64 351.93 77.83 351.91 78.02C350.37 95.62 335.6 109.42 317.61 109.42C299.62 109.42 284.4 95.2 283.24 77.23C283.24 77.12 283.23 76.99 283.22 76.85C283.19 76.06 283.17 74.97 283.17 74.97H262.12C262.12 74.97 262.13 76.47 262.16 77.21C263.34 106.82 287.71 130.46 317.62 130.46C347.53 130.46 371.64 107.07 373.05 77.67C373.09 76.77 373.11 74.96 373.11 74.96H352.06H352.03Z" fill="#AECC53"/>
<path d="M322.48 70.06H312.68V79.86H322.48V70.06Z" fill="#006D68"/>
<path d="M283.26 70.06H273.46V79.86H283.26V70.06Z" fill="white"/>
<path d="M361.7 70.06H351.9V79.86H361.7V70.06Z" fill="white"/>
<path d="M312.68 109.19V118.99H322.48V109.19H312.68Z" fill="white"/>
<path d="M312.68 30.93V40.73H322.48V30.93H312.68Z" fill="white"/>
<path d="M293.07 60.25V70.06H283.27V79.86H293.07V84.01V89.67H302.88V84.01V79.86V70.06V60.25H293.07Z" fill="#3C3C3C"/>
<path d="M342.1 70.06V67.18V60.25H332.29V67.18V70.06V79.86V89.67H342.1V79.86H351.9V70.06H342.1Z" fill="#3C3C3C"/>
<path d="M322.49 50.45V40.64H312.68V50.45H302.88V60.25H312.68H322.49H332.29V50.45H322.49Z" fill="#3C3C3C"/>
<path d="M327.39 89.67H322.49H312.68H310.16H302.88V99.47H310.16H312.68V109.28H322.49V99.47H327.39H332.29V89.67H327.39Z" fill="#3C3C3C"/>
</svg>
